storage/app/icons/phosphoricons/thin/selection-inverse-thin.svg

<svg xmlns="http://www.w3.org/2000/svg" fill="currentColor" viewBox="0 0 256 256"><path d="M148 216a4 4 0 0 1-4 4h-32a4 4 0 0 1 0-8h32a4 4 0 0 1 4 4M40 148a4 4 0 0 0 4-4v-32a4 4 0 0 0-8 0v32a4 4 0 0 0 4 4m32 64H48a4 4 0 0 1-4-4v-24a4 4 0 0 0-8 0v24a12 12 0 0 0 12 12h24a4 4 0 0 0 0-8M220 48v160a12 12 0 0 1-12 12h-24a4 4 0 0 1 0-8h22.34L44 49.66V72a4 4 0 0 1-8 0V48a12 12 0 0 1 12-12h160a12 12 0 0 1 12 12m-12-4H49.66L212 206.34V48a4 4 0 0 0-4-4"/></svg>

<svg xmlns="http://www.w3.org/2000/svg" viewBox="0 0 256 256" fill="currentColor"><path d="M148,216a4,4,0,0,1-4,4H112a4,4,0,0,1,0-8h32A4,4,0,0,1,148,216ZM40,148a4,4,0,0,0,4-4V112a4,4,0,0,0-8,0v32A4,4,0,0,0,40,148Zm32,64H48a4,4,0,0,1-4-4V184a4,4,0,0,0-8,0v24a12,12,0,0,0,12,12H72a4,4,0,0,0,0-8ZM220,48V208a12,12,0,0,1-12,12H184a4,4,0,0,1,0-8h22.34L44,49.66V72a4,4,0,0,1-8,0V48A12,12,0,0,1,48,36H208A12,12,0,0,1,220,48Zm-12-4H49.66L212,206.34V48A4,4,0,0,0,208,44Z"/></svg>
